X:1
T:Harold, 2.10.10.10
T:Harold, 2.10.10.10
T:Carl Fowler Price, 1921
T:Public Domain Courtesy of the Cyber Hymnal™
C:Carl Fowler Price, 1921
Z:Public Domain
Z:Courtesy of the Cyber Hymnal™
%%score ( 1 2 ) ( 3 4 )
L:1/8
M:4/4
K:C
V:1 treble 
V:2 treble 
V:3 bass 
V:4 bass 
V:1
 B2 | [Ec]3 [EG] [CF]2 [CE]2 | [CD]3 [CE] [CF]2 [CA]2 | C4 [B,D]4 | [CE]6 [EG]2 | %5
 [^DG]3 [D^F] [DF]2 [EG]2 | (B4 A2) [Ec]2 | E4 (G2 ^F2) | [B,E]8 | G4 c3 z x | [GB]4 [FA]4 | %11
 A2 [Ae]2 [Ad]2 [Ac]2 | (c4 B2) G2 | [Ge]4 [Ec]4 | [Fd]4 d4 | [Ec]6 |] %16
V:2
 B2 | x8 | x8 | x8 | x8 | x8 | E6 x2 | x4 ^D4 | x8 | (G2 E2) F2 G2 B | x8 | x8 | G6 x2 | x8 | %14
 x4 (G2 F2) | x6 |] %16
V:3
 G,2 | [C,C]3 [C,B,] [C,A,]2 [C,G,]2 | [F,A,]3 [E,A,] [D,A,]2 [D,F,]2 | [G,,E,]4 [G,,G,]4 | %4
 [C,G,]6 [C,C]2 | [A,C]3 [A,C] [A,C]2 [G,C]2 | [^F,C]6 [F,A,]2 | [B,,G,]4 [B,,A,]4 | [E,G,]8 | %9
 C4 C3 z x | (C2 B,2) (C2 ^C2) | [F,D]2 [E,^C]2 [F,D]2 [^F,^D]2 | (E4 D2) G,2 | [E,B,]4 [A,C]4 | %14
 [D,A,]4 [G,,B,]4 | [C,G,C]6 |] %16
V:4
 G,2 | x8 | x8 | x8 | x8 | x8 | x8 | x8 | x8 | (E,2 C,2) D,2 (E,2 C) | F,4 F,4 | x8 | G,6 x2 | x8 | %14
 x8 | x6 |] %16

